X: 277
T: And the Cat Came Back
B: canberra pickers and fiddlers
B: tunes
M:2/4
L:1/16
R: reel
Q: 1/4=100
K:G
V:1 
(3DEF |\
"G"G2[B2G2] BcdB | "C"c2B2 dcBA | "G"G2G2 Bd3 | "D"cBAF D"G"FAF |
"G"G2[B2G2] BcdB | "C"cBcd e2d2 | edef gedc | "D"BGA2 G2 :|
|: ef |\
"G"gage d2B2 | gfgd e2d2 | gfga gdef | "D"g2a"G"f g2 :|
|: Bc |\
"G"d2g2- gfg2 |b4- b2{^a}b2- | b2{^a}b2- b=age | d4- d2Bc |
"G"d2e2 edB2 | {^A}B4- B2{A}B2- | "G"B2{^A}B2- "D"B2G=A | "G"G4- G2 :|
% abcbook-tune_id 63ae8f1c5c7b082293622d9c
% abcbook-tune_composer_id 
% abcbook-link-0 https://www.youtube.com/watch?v=TQyPAw-lk9A
% abcbook-link-start-at-0 48
% abcbook-boost 0
% abcbook-difficulty 0
% abcbook-tags canberra pickers and fiddlers,old time tunes,steve ryan,© free
% abcbook-tablature 
% abcbook-transpose 
% abcbook-tuning GDAD
% abcbook-lastupdated 1677369714247
% abcbook-src-url https://tunebook.net/scrape/tunes.abc
% abcbook-soundfonts 
% abcbook-repeats 1
% Generated more or less automatically by swtoabc by Erich Rickheit KSC

